dataset/appflowy/icon.svg

<?xml version="1.0" encoding="UTF-8" standalone="no"?>
<svg
   viewBox="0 0 128 128"
   style="display:inline;enable-background:new"
   version="1.0"
   id="svg11300"
   height="128"
   width="128"
   xml:space="preserve"
   xmlns:xlink="http://www.w3.org/1999/xlink"
   xmlns="http://www.w3.org/2000/svg"
   xmlns:svg="http://www.w3.org/2000/svg"
   xmlns:rdf="http://www.w3.org/1999/02/22-rdf-syntax-ns#"
   xmlns:cc="http://creativecommons.org/ns#"
   xmlns:dc="http://purl.org/dc/elements/1.1/"><title
     id="title4162">Adwaita Icon Template</title><defs
     id="defs3"><linearGradient
       id="linearGradient28"><stop
         style="stop-color:#0091cc;stop-opacity:1;"
         offset="0.26699021"
         id="stop29" /><stop
         style="stop-color:#33c4ff;stop-opacity:1;"
         offset="0.5"
         id="stop31" /><stop
         style="stop-color:#0091cc;stop-opacity:1;"
         offset="0.62582856"
         id="stop30" /></linearGradient><linearGradient
       id="linearGradient25"><stop
         style="stop-color:#d97808;stop-opacity:1;"
         offset="0.3435843"
         id="stop26" /><stop
         style="stop-color:#f9aa4e;stop-opacity:1;"
         offset="0.5"
         id="stop28" /><stop
         style="stop-color:#d87808;stop-opacity:1;"
         offset="0.71089804"
         id="stop27" /></linearGradient><linearGradient
       id="linearGradient20"><stop
         style="stop-color:#b20056;stop-opacity:1;"
         offset="0.35326704"
         id="stop21" /><stop
         style="stop-color:#ff1a88;stop-opacity:1;"
         offset="0.5"
         id="stop25" /><stop
         style="stop-color:#b20056;stop-opacity:1;"
         offset="0.67510259"
         id="stop23" /></linearGradient><linearGradient
       id="linearGradient18"><stop
         style="stop-color:#6c1bbb;stop-opacity:1;"
         offset="0.02938763"
         id="stop18" /><stop
         style="stop-color:#9e55e7;stop-opacity:1;"
         offset="0.09928977"
         id="stop20" /><stop
         style="stop-color:#6c1bbb;stop-opacity:1;"
         offset="0.23092645"
         id="stop19" /></linearGradient><linearGradient
       xlink:href="#linearGradient18"
       id="linearGradient19"
       x1="-160.46096"
       y1="37.62275"
       x2="-109.94717"
       y2="37.62275"
       gradientUnits="userSpaceOnUse"
       gradientTransform="translate(171.66636)" /><linearGradient
       xlink:href="#linearGradient20"
       id="linearGradient23"
       x1="-139.27818"
       y1="116.00001"
       x2="-119.17497"
       y2="90.883362"
       gradientUnits="userSpaceOnUse"
       gradientTransform="translate(171.66636)" /><linearGradient
       xlink:href="#linearGradient25"
       id="linearGradient27"
       x1="-86.535629"
       y1="113.20782"
       x2="-55.011051"
       y2="83.873711"
       gradientUnits="userSpaceOnUse"
       gradientTransform="translate(171.66636)" /><linearGradient
       xlink:href="#linearGradient28"
       id="linearGradient30"
       x1="-80.27578"
       y1="31.294579"
       x2="-75.329567"
       y2="12"
       gradientUnits="userSpaceOnUse"
       gradientTransform="translate(171.66636)" /></defs><metadata
     id="metadata4"><rdf:RDF><cc:Work
         rdf:about=""><dc:format>image/svg+xml</dc:format><dc:type
           rdf:resource="http://purl.org/dc/dcmitype/StillImage" /><dc:creator><cc:Agent><dc:title>GNOME Design Team</dc:title></cc:Agent></dc:creator><dc:source /><cc:license
           rdf:resource="http://creativecommons.org/licenses/by-sa/4.0/" /><dc:title>Adwaita Icon Template</dc:title><dc:subject><rdf:Bag /></dc:subject><dc:date /><dc:rights><cc:Agent><dc:title /></cc:Agent></dc:rights><dc:publisher><cc:Agent><dc:title /></cc:Agent></dc:publisher><dc:identifier /><dc:relation /><dc:language /><dc:coverage /><dc:description /><dc:contributor><cc:Agent><dc:title /></cc:Agent></dc:contributor></cc:Work><cc:License
         rdf:about="http://creativecommons.org/licenses/by-sa/4.0/"><cc:permits
           rdf:resource="http://creativecommons.org/ns#Reproduction" /><cc:permits
           rdf:resource="http://creativecommons.org/ns#Distribution" /><cc:requires
           rdf:resource="http://creativecommons.org/ns#Notice" /><cc:requires
           rdf:resource="http://creativecommons.org/ns#Attribution" /><cc:permits
           rdf:resource="http://creativecommons.org/ns#DerivativeWorks" /><cc:requires
           rdf:resource="http://creativecommons.org/ns#ShareAlike" /></cc:License></rdf:RDF></metadata><path
     d="M 116.67493,74.876383 C 113.64835,91.10685 100.379,105.26522 85.130733,113.20782 c -1.862513,1.03605 -4.073983,1.61149 -6.16931,1.72658 h 32.359047 c 3.14272,0 5.35446,-2.30228 5.35446,-5.17999 z"
     fill="#f7931e"
     id="path1"
     style="fill:url(#linearGradient27);stroke-width:2.63961" /><path
     d="m 51.95605,43.56553 c -0.46563,0.345262 -0.93126,0.690524 -1.39689,1.035785 -7.91515,5.525243 -31.89331,23.252107 -37.36405,15.53968 -5.35435,-7.48199 0.3492,-28.662051 14.08428,-38.906742 0.23279,-0.230227 0.58199,-0.345341 0.8148,-0.575568 15.01545,-10.474918 26.18973,-8.978499 31.6606,-1.381285 5.12138,7.136754 -0.58204,18.417441 -7.79874,24.28813 z"
     fill="#8427e0"
     id="path2"
     style="fill:url(#linearGradient19);stroke-width:2.63961" /><path
     d="m 100.61313,106.75898 c -0.23281,0.23017 -0.46563,0.34525 -0.814847,0.57544 -15.015452,10.47505 -26.189734,8.97864 -31.660603,1.38131 -5.12138,-7.13673 0.58204,-18.417395 7.798745,-24.287899 0.465628,-0.345261 0.931255,-0.690787 1.396884,-1.036049 7.91515,-5.410155 31.893421,-23.252107 37.247611,-15.539679 5.47087,7.481989 -0.11641,28.662263 -13.96779,38.906877 z"
     fill="#ffbd00"
     id="path3"
     style="stroke-width:2.63961" /><path
     d="M 58.70634,114.01237 C 51.024,119.42253 28.90819,113.55203 18.78147,99.278307 18.54868,99.048133 18.31589,98.70287 18.19949,98.472697 8.30557,84.084154 9.93516,73.263842 17.50109,68.083861 c 7.44953,-5.179981 19.08944,0.805875 24.90932,8.287864 0.23281,0.345262 0.46563,0.575436 0.69844,0.920962 5.47087,7.712164 23.39623,31.424623 15.59749,36.719683 z"
     fill="#e3006d"
     id="path4"
     style="fill:url(#linearGradient23);stroke-width:2.63961" /><path
     d="M 51.9571,43.56553 C 41.24845,48.284899 18.43417,57.954073 15.0586,50.126558 12.14864,43.56553 17.503,30.212745 27.2805,21.234253 c 0.23281,-0.230227 0.58201,-0.345341 0.81479,-0.575568 15.0154,-10.474918 26.18969,-8.978499 31.66056,-1.381285 5.12164,7.136754 -0.58203,18.417441 -7.79875,24.28813 z"
     fill="#9327ff"
     id="path5"
     style="stroke-width:2.63961" /><path
     d="M 110.61965,60.031186 C 103.17013,65.211168 91.530215,59.225576 85.710391,51.743323 85.477578,51.398061 85.244764,51.167886 85.011949,50.822625 79.424676,42.995109 61.49931,19.282627 69.18165,13.987614 c 7.682335,-5.4101317 29.914495,0.460425 40.04138,14.733961 0.23281,0.34534 0.46536,0.575541 0.69818,0.920882 9.77766,14.388701 8.26437,25.093661 0.69844,30.388729 z"
     fill="#00b5ff"
     id="path6"
     style="fill:url(#linearGradient30);stroke-width:2.63961" /><path
     d="M 110.62071,60.025643 C 103.17118,65.205361 91.531272,59.219769 85.711448,51.737779 80.939023,40.802381 71.743392,19.276925 79.425732,16.053849 c 6.983894,-2.992825 21.417578,2.992849 30.612938,13.58288 9.66126,14.388623 8.14796,25.093846 0.58204,30.388914 z"
     fill="#00c8ff"
     id="path7"
     style="stroke-width:2.63961" /><path
     d="m 100.61313,106.76056 c -0.23281,0.23018 -0.46563,0.34527 -0.814847,0.57544 -15.015452,10.47505 -26.189734,8.97865 -31.660603,1.38131 -5.12138,-7.13673 0.58204,-18.417391 7.798745,-24.287895 10.708918,-4.719632 33.523115,-14.388807 36.898655,-6.561292 3.02632,6.561292 -2.32814,19.913786 -12.22195,28.892437 z"
     fill="#ffce00"
     id="path8"
     style="stroke-width:2.63961" /><path
     d="M 48.69613,111.94054 C 41.71196,114.93333 27.2786,109.06284 18.19949,98.472697 8.30557,84.084154 9.93516,73.263842 17.50109,68.083861 c 7.44953,-5.179981 19.08944,0.805875 24.90932,8.287864 4.77242,10.820311 13.96805,32.345585 6.28572,35.568815 z"
     fill="#fb006d"
     id="path9"
     style="stroke-width:2.63961" /></svg>

<svg xmlns="http://www.w3.org/2000/svg" xmlns:xlink="http://www.w3.org/1999/xlink" xml:space="preserve" width="128" height="128" style="display:inline" viewBox="0 0 128 128"><title>Adwaita Icon Template</title><defs><linearGradient id="d"><stop offset=".267" style="stop-color:#0091cc;stop-opacity:1"/><stop offset=".5" style="stop-color:#33c4ff;stop-opacity:1"/><stop offset=".626" style="stop-color:#0091cc;stop-opacity:1"/></linearGradient><linearGradient id="c"><stop offset=".344" style="stop-color:#d97808;stop-opacity:1"/><stop offset=".5" style="stop-color:#f9aa4e;stop-opacity:1"/><stop offset=".711" style="stop-color:#d87808;stop-opacity:1"/></linearGradient><linearGradient id="b"><stop offset=".353" style="stop-color:#b20056;stop-opacity:1"/><stop offset=".5" style="stop-color:#ff1a88;stop-opacity:1"/><stop offset=".675" style="stop-color:#b20056;stop-opacity:1"/></linearGradient><linearGradient id="a"><stop offset=".029" style="stop-color:#6c1bbb;stop-opacity:1"/><stop offset=".099" style="stop-color:#9e55e7;stop-opacity:1"/><stop offset=".231" style="stop-color:#6c1bbb;stop-opacity:1"/></linearGradient><linearGradient xlink:href="#a" id="f" x1="-160.461" x2="-109.947" y1="37.623" y2="37.623" gradientTransform="translate(171.666)" gradientUnits="userSpaceOnUse"/><linearGradient xlink:href="#b" id="g" x1="-139.278" x2="-119.175" y1="116" y2="90.883" gradientTransform="translate(171.666)" gradientUnits="userSpaceOnUse"/><linearGradient xlink:href="#c" id="e" x1="-86.536" x2="-55.011" y1="113.208" y2="83.874" gradientTransform="translate(171.666)" gradientUnits="userSpaceOnUse"/><linearGradient xlink:href="#d" id="h" x1="-80.276" x2="-75.33" y1="31.295" y2="12" gradientTransform="translate(171.666)" gradientUnits="userSpaceOnUse"/></defs><path fill="#f7931e" d="M116.675 74.876c-3.027 16.23-16.296 30.39-31.544 38.332-1.863 1.036-4.074 1.611-6.17 1.726h32.36c3.142 0 5.354-2.302 5.354-5.18z" style="fill:url(#e);stroke-width:2.63961"/><path fill="#8427e0" d="M51.956 43.566 50.559 44.6c-7.915 5.526-31.893 23.252-37.364 15.54-5.354-7.482.35-28.662 14.084-38.907.233-.23.582-.345.815-.575 15.016-10.475 26.19-8.979 31.66-1.382 5.122 7.137-.581 18.418-7.798 24.289" style="fill:url(#f);stroke-width:2.63961"/><path fill="#ffbd00" d="M100.613 106.759c-.233.23-.466.345-.815.575-15.015 10.475-26.19 8.98-31.66 1.382-5.122-7.137.582-18.418 7.798-24.288l1.397-1.036c7.915-5.41 31.894-23.252 37.248-15.54 5.47 7.482-.116 28.662-13.968 38.907" style="stroke-width:2.63961"/><path fill="#e3006d" d="M58.706 114.012c-7.682 5.41-29.798-.46-39.925-14.734a3.5 3.5 0 0 1-.582-.805c-9.893-14.389-8.264-25.21-.698-30.39 7.45-5.18 19.09.807 24.91 8.289.232.345.465.575.698.92 5.47 7.713 23.396 31.425 15.597 36.72" style="fill:url(#g);stroke-width:2.63961"/><path fill="#9327ff" d="M51.957 43.566c-10.709 4.719-33.523 14.388-36.898 6.56-2.91-6.56 2.444-19.913 12.222-28.892.232-.23.582-.345.814-.575 15.016-10.475 26.19-8.979 31.66-1.382 5.122 7.137-.581 18.418-7.798 24.289" style="stroke-width:2.63961"/><path fill="#00b5ff" d="M110.62 60.031c-7.45 5.18-19.09-.805-24.91-8.288-.232-.345-.465-.575-.698-.92-5.587-7.828-23.513-31.54-15.83-36.835 7.682-5.41 29.914.46 40.041 14.734.233.345.465.575.698.92 9.778 14.39 8.265 25.094.699 30.39" style="fill:url(#h);stroke-width:2.63961"/><path fill="#00c8ff" d="M110.62 60.026c-7.449 5.18-19.089-.806-24.909-8.288-4.772-10.936-13.968-32.461-6.285-35.684 6.984-2.993 21.417 2.993 30.613 13.583 9.66 14.388 8.148 25.094.582 30.389" style="stroke-width:2.63961"/><path fill="#ffce00" d="M100.613 106.76c-.233.23-.466.346-.815.576-15.015 10.475-26.19 8.979-31.66 1.381-5.122-7.136.582-18.417 7.798-24.288 10.71-4.72 33.524-14.388 36.9-6.56 3.025 6.56-2.33 19.913-12.223 28.892" style="stroke-width:2.63961"/><path fill="#fb006d" d="M48.696 111.94c-6.984 2.993-21.417-2.877-30.497-13.467-9.893-14.389-8.264-25.21-.698-30.39 7.45-5.18 19.09.807 24.91 8.289 4.772 10.82 13.967 32.345 6.285 35.569" style="stroke-width:2.63961"/></svg>
